X:25
T:German Minuet. TLY.025
M:3/4
L:1/8
Q:3/4=50
S:Wm.Tildesley,Swinton,Lancs.1860s.
R:.Minuet
O:England.
A:Lancashire.
W: top dâ€™ marked as top câ€™ in MS
H:1860.
Z:vmp.Taz Tarry.
K:D
d2f2a2|dâ€™2 agfe|d2 dddd|d4 a2|b4a2|g4f2|!
e2 eeee|e4 fe|de f2 ed|ef g2 fe|de f2 ed| ef g2 fe|!
d2 f2 a2|dâ€™2 agfe|d2 dddd|d6::A2c2e2|a2 edcB|!
A2 AAAA|A6|d2f2a2|dâ€™2 agfe|d2 dddd|d4 a2|!
b2 bgbg|a2fafa|b2 gbgb|a2fafa|b4a2|g4f2|!
e2 eeee|e4 fe|de f2 ed|ef g2 fe|de f2 ed|!
ef g2 fe| d2 f2 a2|dâ€™2 agfe|d2 dddd|d6:|

